!!!SOCIAL_FUNCTION:	songs with treatment of the sick
!!!PDT:	1943
!!!OTL: No_25_Doctor_Jim's_Song.krn
!!!REG: British Columbia
**kern	**kern
*staff2	*staff1
=1-	=1-
*clefF4	*clefF4
*k[f#]	*k[f#]
*M2/4	*M2/4
8GG/L	8.d\L
8GG/J	.
.	16d\Jk
8GG/L	8.d\L
8GG/J	.
.	16e\Jk
=2!|:	=2!|:
8GG/L	12d\L
.	12B\
8GG/J	.
.	12d\J
4r	8A\L
.	8A\J
=3	=3
2r	8.B\L
.	16B\Jk
.	8.B\L
.	16d\Jk
=4	=4
2r	12B\L
.	12A\
.	12B\J
.	8A\L
.	16A\Jk
.	16r
=5	=5
2r	2B\
=6||	=6||
*M3/8	*M3/8
4.r	32A\LLK
.	16.A\
.	32A\K
.	16.A\J
.	8B\J
=7||	=7||
*M2/4	*M2/4
2r	4.A\
.	8B\
=8||	=8||
*M3/8	*M3/8
4.r	32G\LLK
.	16.G\
.	16.G\
.	32G\JK
.	8A\J
=9||	=9||
*M2/4	*M2/4
2r	2A\
=10||	=10||
*M3/8	*M3/8
4.r	32G\LLK
.	16.G\
.	32G\K
.	16.G\J
.	8A\J
=11||	=11||
*M2/4	*M2/4
2r	2G\
=12	=12
2r	16G\LL
.	16G\
.	16A\
.	16A\JJ
.	4r
==:|!	==:|!
*-	*-
